src/icons/0086_eightCircles_a.svg

<svg data-name="Layer 1" xmlns="http://www.w3.org/2000/svg" viewBox="0 0 48 48"><path d="M24 0a3.8 3.8 0 11-3.8 3.8A3.8 3.8 0 0124 0zm0 40.4a3.8 3.8 0 11-3.8 3.8 3.8 3.8 0 013.8-3.8zm20.2-20.2a3.8 3.8 0 11-3.8 3.8 3.8 3.8 0 013.8-3.8zm-40.4 0A3.8 3.8 0 110 24a3.8 3.8 0 013.8-3.8zM38.3 5.9a3.8 3.8 0 11-3.8 3.8 3.8 3.8 0 013.8-3.8zM9.7 34.5a3.8 3.8 0 11-3.8 3.8 3.8 3.8 0 013.8-3.8zm0-28.6a3.8 3.8 0 11-3.8 3.8 3.8 3.8 0 013.8-3.8zm28.6 28.6a3.8 3.8 0 11-3.8 3.8 3.8 3.8 0 013.8-3.8z"/></svg>

<svg id="Layer_1" data-name="Layer 1" xmlns="http://www.w3.org/2000/svg" viewBox="0 0 48 48"><title>0086_eightCircles_a</title><path d="M24,0a3.8,3.8,0,1,1-3.8,3.8A3.8,3.8,0,0,1,24,0Zm0,40.4a3.8,3.8,0,1,1-3.8,3.8A3.8,3.8,0,0,1,24,40.4ZM44.2,20.2A3.8,3.8,0,1,1,40.4,24,3.8,3.8,0,0,1,44.2,20.2Zm-40.4,0A3.8,3.8,0,1,1,0,24,3.8,3.8,0,0,1,3.8,20.2ZM38.3,5.9a3.8,3.8,0,1,1-3.8,3.8A3.8,3.8,0,0,1,38.3,5.9ZM9.7,34.5a3.8,3.8,0,1,1-3.8,3.8A3.8,3.8,0,0,1,9.7,34.5Zm0-28.6A3.8,3.8,0,1,1,5.9,9.7,3.8,3.8,0,0,1,9.7,5.9ZM38.3,34.5a3.8,3.8,0,1,1-3.8,3.8A3.8,3.8,0,0,1,38.3,34.5Z"/></svg>
